X:1
T:Title
%%score ( 1 2 ) { 3 | 4 }
L:1/8
Q:1/4=93
M:3/4
K:C
V:1 treble nm="Grand Piano, Soprano"
V:2 treble 
V:3 bass nm="Choir Pad, Ryle, 88.88.88.88.88.88"
V:4 bass 
V:1
 [EG][CE] [DF] [EG]3 | [Ec][CE] [DF] [EG]3 | [Ec][DB] [Ec] [Fd]3 | [Fd][FA] [FB] [Ec]3 | %4
w: By~James~McGranahan,~1878 * * *||||
 [EG][CE] [DF] [EG]3 | [Ec][CE] [DF] [EG]3 | [Ec][DB] [Dc][DB] [CA][B,G]- | [B,G] [D^F]2 [DG]3 | %8
w: ||||
 [B,D][B,D] [CE] [DF]3 | [B,D][CE] [DF] [EG]3 | [CE][DF] [EG] [FA]3 | [Ac][GB] [FA] [EG]3 | %12
w: ||||
 [EG][CE] [DF] [EG]3 | [Ec][CE] [DF] [EG]3 | [Ec][GB] [FA][EG] [Ec][Fd]- | [Fd]B- [FB] [Ec]3 | %16
w: ||||
 G[GB] [Ec] [Gd]3 | G[FA] [FB] [Ec]3 | G[GB] [Ec] [Gd]3 | G[FA] [FB] [Ec]3 | [EG][CE] [DF] [EG]3 | %21
w: |||||
 [Ec][CE] [DF] [EG]3 | [Ec][GB] [FA][EG] [Ec][Fd]- | [Fd]B- [FB] [Ec]3- | [Ec]4 z2 |] %25
w: ||||
V:2
 x6 | x6 | x6 | x6 | x6 | x6 | x6 | x6 | x6 | x6 | x6 | x6 | x6 | x6 | x6 | z D z2 z2 | x6 | x6 | %18
 x6 | x6 | x6 | x6 | x6 | z D z2 z2 | x6 |] %25
V:3
 CG, G, C3 | G,G, G, C3 | G,G, G, G,3 | G,G, G, G,3 | CG, G, C3 | G,G, G, C3 | G,G, A,G, ^F,G,- | %7
 G, C2 B,3 | G,G, G, B,3 | G,G, B,[K:treble] C3 | CC C C3 | CC C C3 | C[K:bass]G, G, C3 | %13
 G,G, G, C3 | G,G,[K:treble] CC CA,- | A,[K:bass] G,2 G,3 | B,D C B,3 | CC G, G,3 | %18
 B,[K:treble]D C B,3 | CC[K:bass] G, G,3 | CG, G, C3 | G,G, G, C3 | G,G, CC CA,- | A, G,2 G,3- | %24
 G,4 z2 |] %25
V:4
 C,C, C, C,3 | C,C, C, C,3 | C,G,, G,, G,,3 | G,,G,, G,, C,3 | C,C, C, C,3 | C,C, C, C,3 | %6
 C,D, D,D, D,D,- | D, D,2 G,,3 | G,,G,, G,, G,,3 | G,,G,, G,, C,3 | C,C, C, F,3 | F,F, F, C,3 | %12
 C,C, C, C,3 | C,C, C, C,3 | C,C, C,C, A,F,- | F, z z C,3 | G,G, G, G,3 | E,F, D, C,3 | %18
 G,G, G, G,3 | E,F, D, C,3 | C,C, C, C,3 | C,C, C, C,3 | C,C, C,C, A,F,- | F, z z C,3- | C,4 z2 |] %25

